X: 10080
T: Did Ye, Aye?
R: reel
M: 4/4
K: Aminor
|:G|E2AE GAA/A/A|cAcd cAGD|EG AE GAA/A/A|cAcd edeg|
a2c'a c'agd|eage dcBc|e2ce dcBc|1 AEGc A3:|2 AEGc Aceg||
|:a2c'a c'agd|eage dcde|c2cA cde2|e/e/eeg edeg|
a2c'a c'agd|eage dcBc|e2ce dcBc|1 AEGc Aceg:|2 AEGc A3||

